X:1
T:Title
%%score { 1 | 2 }
L:1/8
Q:1/4=100
M:4/4
K:Ab
V:1 treble nm="Grand Piano"
V:2 bass 
V:1
 [Ec]3 [Fd] [Ec]2 [DB]2 | [EA]3 [EG] [EA]2 [DF]2 | [CE]2 [CE]2 [EA]2 [Ec]2 | [EB]6 z2 | %4
w: W.~J.~Kirkpatrick * * *||||
 [Ec]3 [Fd] [Ec]2 [DB]2 | [EA]3 [EG] [EA]2 F2 | E2 A2 c2 B2 |[M:3/4] [CA]6 |[M:1/4] c>d | %9
w: |||||
[M:4/4] e4 c4 | cBAB cBAc | [GB]4 [Ge]4 | [EG][FA][B,EG][A,=DF] [G,E]2 [G,E][G,DE] | [CA]4 [Ec]4 | %14
w: |||||
 cBAB cdef | e2 A>A [Ac]2 [GB]2 | [CEA]6 z2 |] %17
w: |||
V:2
 [A,,A,]3 [A,,A,] [A,,A,]2 [B,,G,]2 | [C,A,]3 [B,,A,] [C,A,]2 [D,A,]2 | %2
 [A,,A,]2 [A,,A,]2 [C,A,]2 [A,,A,]2 | [E,G,]6 z2 | [A,,A,]3 [A,,A,] [A,,A,]2 [B,,G,]2 | %5
 [C,A,]3 [B,,A,] [C,A,]2 [D,A,D]2 | [E,A,C]2 [E,A,C]2 [E,A,E]2 [E,G,D]2 |[M:3/4] [A,,A,]6 | %8
[M:1/4][K:treble] [A,A]>[A,B,A] |[M:4/4] [A,CA]4 [A,EA]4 | %10
 [A,EA][A,DE][A,CE][A,DE] [A,EA][A,DE][A,CE][A,EA] | [E,E]4 [E,B,]4 | B,B,B,,B,, E,D,C,B,, | %13
 [A,,E,A,]4 [A,,A,]4 | [A,E][A,DE][A,CE][A,DE] [A,EA][A,B,A][A,CA][A,DA] | %15
 [A,CA]2[K:bass] [F,=D]>[F,D] [E,E]2 [E,_D]2 | [A,,A,]6 z2 |] %17

